public/images/linkedin.svg

<?xml version="1.0" encoding="UTF-8"?>
<svg width="26px" height="25px" viewBox="0 0 26 25" version="1.1" xmlns="http://www.w3.org/2000/svg" xmlns:xlink="http://www.w3.org/1999/xlink">
    <!-- Generator: Sketch 48.2 (47327) - http://www.bohemiancoding.com/sketch -->
    <title>linkedin-logo copy</title>
    <desc>Created with Sketch.</desc>
    <defs></defs>
    <g id="Page-1" stroke="none" stroke-width="1" fill="none" fill-rule="evenodd">
        <g id="Group-6" transform="translate(-800.000000, -2.000000)" fill="#000000" fill-rule="nonzero">
            <g id="linkedin-logo-copy" transform="translate(800.000000, 2.000000)">
                <path d="M25.9467332,15.2346125 L25.9467332,24.8272854 L20.3855081,24.8272854 L20.3855081,15.8770719 C20.3855081,13.6287053 19.5811369,12.0942831 17.5681578,12.0942831 C16.0315035,12.0942831 15.1170394,13.1283712 14.7147332,14.1286775 C14.5680232,14.4862831 14.5302599,14.9840232 14.5302599,15.4845986 L14.5302599,24.8272854 L8.96716473,24.8272854 C8.96716473,24.8272854 9.04208817,9.66856148 8.96716473,8.09800464 L14.5297169,8.09800464 L14.5297169,10.4693132 C14.5184362,10.4870487 14.5037773,10.5061717 14.4931601,10.5233643 L14.5297169,10.5233643 L14.5297169,10.4693132 C15.2687564,9.33104408 16.5886032,7.7049884 19.5428306,7.7049884 C23.2029188,7.70492807 25.9467332,10.0960232 25.9467332,15.2346125 Z M3.14793039,0.0336612529 C1.24480278,0.0336612529 0,1.28196288 0,2.92352204 C0,4.52930858 1.20878886,5.8154942 3.07409281,5.8154942 L3.1112529,5.8154942 C5.05123898,5.8154942 6.2577355,4.52954988 6.2577355,2.92352204 C6.22117865,1.28196288 5.05123898,0.0336612529 3.14793039,0.0336612529 Z M0.330399072,24.8272854 L5.89138283,24.8272854 L5.89138283,8.09800464 L0.330399072,8.09800464 L0.330399072,24.8272854 Z" id="LinkedIn"></path>
            </g>
        </g>
    </g>
</svg>

<svg width="26" height="25" xmlns="http://www.w3.org/2000/svg"><path d="M25.947 15.235v9.592h-5.561v-8.95c0-2.248-.805-3.783-2.818-3.783-1.536 0-2.451 1.034-2.853 2.035-.147.357-.185.855-.185 1.356v9.342H8.967s.075-15.158 0-16.729h5.563v2.371l-.037.054h.037v-.054c.739-1.138 2.059-2.764 5.013-2.764 3.66 0 6.404 2.391 6.404 7.53zM3.147.034C1.246.034 0 1.282 0 2.924c0 1.605 1.209 2.891 3.074 2.891h.037c1.94 0 3.147-1.285 3.147-2.891C6.22 1.282 5.05.034 3.148.034zM.33 24.827h5.561V8.098H.331v16.73z"/></svg>
